images/townhall.svg

<svg xmlns="http://www.w3.org/2000/svg" width="14" height="14">
    <path d="M7 0c-.25.003-.5.164-.5.5v3.875L1 7h12L7.5 4.375V.5c0-.348-.25-.503-.5-.5zm1 0v3h4l-2-1.5L12 0zM1 8v1h1v4H1v1h12v-1h-1V9h1V8zm6 1.5c1 0 2 .5 2 1.5v2H5v-2c0-1 1-1.5 2-1.5z" stroke="#fff" stroke-width="3" stroke-linecap="round" stroke-linejoin="round" stroke-opacity=".5"/>
    <path d="M7 0c-.25.003-.5.164-.5.5v3.875L1 7h12L7.5 4.375V.5c0-.348-.25-.503-.5-.5zm1 0v3h4l-2-1.5L12 0zM1 8v1h1v4H1v1h12v-1h-1V9h1V8zm6 1.5c1 0 2 .5 2 1.5v2H5v-2c0-1 1-1.5 2-1.5z"/>
</svg>

<?xml version="1.0" encoding="UTF-8" standalone="no"?>
<!-- Created with Inkscape (http://www.inkscape.org/) -->

<svg xmlns:dc="http://purl.org/dc/elements/1.1/" xmlns:cc="http://creativecommons.org/ns#" xmlns:rdf="http://www.w3.org/1999/02/22-rdf-syntax-ns#" xmlns:svg="http://www.w3.org/2000/svg" xmlns="http://www.w3.org/2000/svg" xmlns:sodipodi="http://sodipodi.sourceforge.net/DTD/sodipodi-0.dtd" xmlns:inkscape="http://www.inkscape.org/namespaces/inkscape" version="1.1" width="14" height="14" viewBox="0 0 14 14" id="svg846" sodipodi:docname="townhall.svg" inkscape:version="0.92.3 (2405546, 2018-03-11)">
  <metadata id="metadata852">
    <rdf:RDF>
      <cc:Work rdf:about="">
        <dc:format>image/svg+xml</dc:format>
        <dc:type rdf:resource="http://purl.org/dc/dcmitype/StillImage" />
        <dc:title></dc:title>
      </cc:Work>
    </rdf:RDF>
  </metadata>
  <defs id="defs850" />
  <sodipodi:namedview pagecolor="#ffffff" bordercolor="#666666" borderopacity="1" objecttolerance="10" gridtolerance="10" guidetolerance="10" inkscape:pageopacity="0" inkscape:pageshadow="2" inkscape:window-width="1881" inkscape:window-height="1051" id="namedview848" showgrid="false" inkscape:zoom="30.892857" inkscape:cx="2.3503706" inkscape:cy="6.4112278" inkscape:window-x="0" inkscape:window-y="0" inkscape:window-maximized="1" inkscape:current-layer="svg846" units="mm" inkscape:pagecheckerboard="true" />
  <path id="outline" d="M 7,0 C 6.75,0.0032 6.5,0.1644239 6.5,0.5 V 4.375 L 1,7 H 13 L 7.5,4.375 V 0.5 C 7.5,0.1516409 7.25,-0.0031957 7,0 Z M 8,0 V 3 H 12 L 10,1.5 L 12,0 Z M 1,8 V 9 H 2 V 13 H 1 V 14 H 13 V 13 H 12 V 9 H 13 V 8 Z M 7,9.5 C 8,9.5 9,10 9,11 V 13 H 5 V 11 C 5,10 6,9.5 7,9.5 Z" style="stroke:#ffffff;stroke-width:3;stroke-linecap:round;stroke-linejoin:round;stroke-miterlimit:4;stroke-dasharray:none;stroke-opacity:0.50196078" inkscape:connector-curvature="0" />
  <path d="M 7,0 C 6.75,0.0032 6.5,0.1644239 6.5,0.5 L 6.5,4.375 1,7 13,7 7.5,4.375 7.5,0.5 C 7.5,0.1516409 7.25,-0.0031957 7,0 z M 8,0 8,3 12,3 10,1.5 12,0 z m -7,8 0,1 1,0 0,4 -1,0 0,1 12,0 0,-1 -1,0 0,-4 1,0 0,-1 z m 6,1.5 c 1,0 2,0.5 2,1.5 l 0,2 -4,0 0,-2 C 5,10 6,9.5 7,9.5 z" id="town-hall" />
</svg>
